!!!COM: Bach, Johann Sebastian
!!!OTL: 124. Auf, auf, mein Herz, und du mein ganzer Sinn
!!!ONM: No. 124
!!!OCL: Erk
!!!SCA: BWV 268
!!!YOE: Riemenschneider, Albert
!!!OPR: 371 Harmonized Chorales and 69 Chorale Melodies with Figured Bass
!!!OPT: Bach Chorale Harmonizations
**harm	**root	**kern	**kern	**kern	**kern
!	!	!bass	!tenor	!alto	!sprno
*Iorgan	*Iorgan	*Iorgan	*Iorgan	*Iorgan	*Iorgan
*k[f#]	*k[f#]	*k[f#]	*k[f#]	*k[f#]	*k[f#]
*G:	*G:	*G:	*G:	*G:	*G:
*met(c)	*met(c)	*met(c)	*met(c)	*met(c)	*met(c)
*M4/4	*M4/4	*M4/4	*M4/4	*M4/4	*M4/4
*MM60	*MM60	*MM60	*MM60	*MM60	*MM60
I	4GG	8G	4d	4g	4b
.	.	8F#	.	.	.
=1	=1	=1	=1	=1	=1
I	8GG	4G	8d	8g	4b
vib	8EE	.	8e	8e	.
Vb/vi	4BB	4D#	4f#	8b	4b
.	.	.	.	8a	.
vi;	4EE;	4E;	4e;	4g;	4b;
iib	4AA	4C	4e	8a	4ee
.	.	.	.	8g	.
=2	=2	=2	=2	=2	=2
V7d	4.DD	4.C	8A	8f#	4dd
.	.	.	8G	8e	.
.	.	.	8A	8f#	4dd
viib/ii	8GG#	8BB	8B	8g#	.
ii	4AA	8AA	8c	4a	4cc
.	.	8GG#	8B	.	.
ii	4AA	4AA	4A	8e	4cc
.	.	.	.	8f#	.
=3	=3	=3	=3	=3	=3
I;	4GG;	4GGn;	4d;	4gn;	4b;
I	4GG	4G	4B	4d	4g
Vb	4DD	8F#	4A	8d	4a
.	.	8E	.	8e	.
V	4DD	4D	8d	8f#	4a
.	.	.	8c	8e	.
=4	=4	=4	=4	=4	=4
I	4GG	8G	8B	4d	4b
.	.	8F#	8A	.	.
IVb	4CC	4E	4G	8g	4cc
.	.	.	.	8e	.
V	8DD	4D	8A	8f#	8dd
V7	8DD	.	8F#	8a	8cc
vi	8EE	8E	8G	[4g	4b
Ic	8GG	8D	8B	.	.
=5	=5	=5	=5	=5	=5
ii7b	8AA	8C	8e	8g]	4a
ii	8AA	8AA	8c	16f#	.
.	.	.	.	16e	.
V	4DD	4D	8A	4f#	4a
.	.	.	16d	.	.
.	.	.	16c	.	.
I;	4GG;	4GG;	4B;	4d;	4g;
V7d/V	4AA	4G	4c#	4e	4a
=6	=6	=6	=6	=6	=6
!!linebreak: 2
Vb	8DD	8F#	8d	8f#	4a
V7c/V	8AA	8E	8c#	8g	.
V	8DD	8D	8d	8f#	4a
Vb/V	8AA	8C#	8e	8e	.
V;	4DD;	4D;	4d;	4f#;	4a;
Vb/vi	4BB	4D#	4B	[4f#	8b
.	.	.	.	.	8a
=7	=7	=7	=7	=7	=7
vi	4EE	8E	4B	4f#]	4g
.	.	8F#	.	.	.
vib	4EE	8G	4B	[4e	4g
.	.	8E	.	.	.
Vb	8DD	8C#	8A	8e]	4a
viio/vi	8DD#	8D#	8F#	8f#	.
vi	8EE	8E	4G	8B	4g
IV	8CC	8Cn	.	[8e	.
=8	=8	=8	=8	=8	=8
viio7b	4FF#	4AA	4c	8e]	2f#
.	.	.	.	8d#	.
V7b/V/vi	4FF#	4AA#	4c#	8e	.
.	.	.	.	8c#	.
V/vi;	4BB;	4BB;	4B;	4d#;	4f#;
Vb/vi	4BB	4D#	8B	4B	4f#
.	.	.	8An	.	.
=9	=9	=9	=9	=9	=9
vi	8EE	8E	8G	4B	4g
V7c/IV	8GG	8Dn	8F#	.	.
IV	8CC	8C	8G	8e	4g
Ib	8GG	8BB	8B	8d	.
ii	4AA	8AA	[4c	8e	4a
.	.	8GG	.	16f#	.
.	.	.	.	16g	.
viio	8FF#	8FF#	8c]	8a	4a
V	8DD	8DD	16d	8f#	.
.	.	.	16c	.	.
=10	=10	=10	=10	=10	=10
I	4GG	8GG	[4B	8d	4b
.	.	8G	.	16e	.
.	.	.	.	16f#	.
IV7b	8CC	8E	8B]	8g	4cc
viiob	8FF#	8A	16A	16f#	.
.	.	.	16G	16e	.
Vb	8DD	8F#	8A	8f#	8dd
V7	8DD	8D	8f#	4a	8cc
I	8GG	8G	8d	.	4b
vi	8EE	8E	8e	8g	.
=11	=11	=11	=11	=11	=11
ii7b	4AA	8C	8e	4g	2a
.	.	8AA	8c	.	.
V	4DD	4D	8A	4f#	.
.	.	.	16d	.	.
.	.	.	16c	.	.
I;	4GG;	4GG;	4B;	4d;	4g;
==	==	==	==	==	==
*-	*-	*-	*-	*-	*-
!!!CDT: 1685/3//-1750/7/28
!!!OCY: Deutschland
!!!AGN: chorale
!!!AST: Baroque
!!!AIN: vox
!!!YOY: 1941
!!!PPP: New York; London
!!!PPR: G. Schirmer
!!!ENC: David Huron
!!!EED: David Huron
!!!YEN: United States of America
!!!YER: 1992
!!!YEC: Copyright 1992 David Huron
!!!YEM: Rights to all derivative electronic formats reserved.
!!!YER: March 20, 1996
!!!AMT: simple quadruple
!!!EEV: 1.1
!!chor2scor: -l 2 -s 0.6 -o %b.pmx
